X:1
T:Waiting to Welcome Us There
T:Waiting to Welcome Us There
T:James Holmes Rosecrans
T:Paul M. Russell, 1882, alt.
T:Public Domain Courtesy of the Cyber Hymnal™
T:Public Domain Courtesy of the Cyber Hymnal™
C:James Holmes Rosecrans
Z:Public Domain
Z:Courtesy of the Cyber Hymnal™
%%score ( 1 2 ) ( 3 4 )
L:1/8
Q:1/4=100
M:4/4
K:Ab
V:1 treble 
V:2 treble 
V:3 bass 
V:4 bass 
V:1
 [A,C]>[B,D] | [CE]2 [Ec]>[DB] [CA]2 [A,C]>[DF] | [CE]6 [CE]>[CE] | %3
w: 1.~On that|shore, on that bright gold- en|shore, Where the|
w: 2.~By and|by we shall rest in that|land, With the|
w: 3.~Ev- ery|day we are near- ing the|shore, All the|
 [DF]2 [DF]>[DF] [=DF]2 [DA]>[DA] | [EG]6 [A,C]>[B,D] | [CE]2 [Ec]>[DB] [CA]2 [A,C]>[DF] | %6
w: dark- ness of night is un-|known; Where the|bright an- gels stand ev- er-|
w: loved and the lost gone be-|fore; By and|by we will join that glad|
w: sor- rows of earth soon shall|cease; We will|soon hear the dip of the|
 [CE]6 [CE]>[CE] | [DF]2 [DF]>[DF] [CE]2 [DG]>[DG] | [CA]6 [DE]>[CA] | %9
w: more, Glo- ry-|crowned at the Fa- ther’s great|throne; They are|
w: band, And ho-|san- nas will sing ev- er-|more; Hea- ven’s|
w: oar, Soon re-|pose in that ha- ven of|peace; O how|
 [EB]2 [EB]>[EB] [EG]2 [DF]>[DE] | [CA]6 [DE]>[CA] |!<(! [EB]2 [EB]>[EB] [Ec]2 [Ec]>[Ac] | %12
w: wait- ing to wel- come us|there, To the|joys and e- ter- nal de-|
w: king in His beau- ty we’ll|see, And the|wealth of that ci- ty un-|
w: hap- py are they who have|gone To that|realm of e- ter- ni- ty|
 [Gd]6!<)! [A,C]>[B,D] | [CE]2 [Ec]>[DB] [CA]2 [A,C]>[DF] | [CE]6 [CE]>[CE] | %15
w: light, Of a|home in that man- sion so|fair, Where earth’s|
w: rolled, A- nd|O what a glad day ’twill|be, When we|
w: fair! They are|wait- ing, their pil- grim- age|done, They are|
 [DF]2 [DF]>[DF] [CE]2 [DG]>[DG] | [CA]6 ||"^Refrain" cd | [Ae] c4- [Ec]AB | %19
w: sor- rows shall fade from our|sight.|||
w: stand in that ci- ty of|gold.|They are|wait- ing, they are wait-|
w: wait- ing to wel- come us|there.|||
 [Ec] A4- [CA][DF][DF] | [CE]2 [EA]>[Ac] [Ae]2 [Ae]>[Ac] | [GB]6 cd | [Ae] c4- [Ec]AB | %23
w: ||||
w: * ing, They are wait-|* ing to wel- come us|there. They are|wait- ing, they are wait-|
w: ||||
 [Ec] A4- [CA][DF][DF] | [CE]2 [EA]>[Ec] !fermata![Ge]2 [GB]>[Gc] | A6 |] %26
w: |||
w: * ing, They are wait-|* ing to wel- come us|there.|
w: |||
V:2
 x2 | x8 | x8 | x8 | x8 | x8 | x8 | x8 | x8 | x8 | x8 | x8 | x8 | x8 | x8 | x8 | x6 || x2 | %18
 x E E E E x3 | x E E E C x3 | x8 | x8 | x E E E E x3 | x E E E C x3 | x8 | A6 |] %26
V:3
 [A,,E,]>[A,,E,] | [A,,A,]2 [A,,A,]>[A,,A,] [A,,E,]2 [A,,E,]>[A,,A,] | [A,,A,]6 [A,,A,]>[A,,A,] | %3
w: ~ ~|~ ~ ~ ~ ~ ~|~ ~ ~|
 [D,A,]2 [D,A,]>[D,A,] [B,,B,]2 [B,,B,]>[B,,B,] | [E,B,]6 [A,,E,]>[A,,E,] | %5
w: ~ ~ ~ ~ ~ ~|~ ~ ~|
 [A,,A,]2 [A,,A,]>[A,,A,] [A,,E,]2 [A,,E,]>[A,,A,] | [A,,A,]6 [A,,A,]>[A,,A,] | %7
w: ~ ~ ~ ~ ~ ~|~ ~ ~|
 [D,A,]2 [D,A,]>[D,A,] [E,A,]2 [E,B,]>[E,B,] | [A,,A,]6 [E,B,]>[E,A,] | %9
w: ~ ~ ~ ~ ~ ~|~ ~ ~|
 [E,G,]2 [E,G,]>[E,G,] [E,B,]2 [E,A,]>[E,G,] | [A,,A,]6 [E,B,]>[E,A,] | %11
w: ~ ~ ~ ~ ~ ~|~ ~ ~|
 [E,G,]2 [E,G,]>[E,G,] [E,A,]2 [E,A,]>[E,A,] | [E,B,]6 [A,,E,]>[A,,E,] | %13
w: ~ ~ ~ ~ ~ ~|~ ~ ~|
 [A,,A,]2 [A,,A,]>[A,,A,] [A,,E,]2 [A,,E,]>[A,,A,] | [A,,A,]6 [A,,A,]>[A,,A,] | %15
w: ~ ~ ~ ~ ~ ~|~ ~ ~|
 [D,A,]2 [D,A,]>[D,A,] E,2 [E,B,]>[E,B,] | [A,,A,]6 || z2 | [A,,C][A,,A,][C,A,][E,A,] A,A, z2 | %19
w: ~ ~ ~ ~ ~ ~|~||wait- ing, wait- ing, wai- ting,|
 A,[A,C][E,C][C,A,] [A,,A,][A,,A,][D,A,][D,A,] | [A,,A,]2 [C,A,]>[E,A,] [A,C]2 [A,C]>[A,E] | %21
w: wait- ing, wait- ing, wai- ting, ~ ~|~ ~ ~ ~ ~ ~|
 [E,E]6 z2 | [A,,C][A,,A,][C,A,][E,A,] A,A, z2 | A,[A,C][E,C][C,A,] [A,,A,][A,,A,][D,A,][D,A,] | %24
w: ~|wait- ing, wait- ing, wai- ting,|wait- ing, wait- ing, wai- ting, * *|
 [E,A,]2 [E,C]>[E,A,] !fermata![E,B,]2 [E,D]>[E,D] | [A,,C]6 |] %26
w: ||
V:4
 x2 | x8 | x8 | x8 | x8 | x8 | x8 | x8 | x8 | x8 | x8 | x8 | x8 | x8 | x8 | x8 | x6 || x2 | %18
 x4 A,A, x2 | A, x7 | x8 | x8 | x4 A, x3 | A, x7 | x8 | x6 |] %26

